build/assets/images/svg/food/9-maslo_rastitelnyoe.svg

<svg width="26" height="26" viewBox="0 0 26 26" fill="none" xmlns="http://www.w3.org/2000/svg">
<path d="M11.8983 24.4113C12.1128 24.7124 12.3501 25.0104 12.6068 25.3051C12.9903 25.744 13.5461 26.0003 14.1343 26.0003H20.2313C20.7968 26.0003 21.3428 25.7728 21.7133 25.3564C22.6948 24.2543 23.4033 23.0338 23.7121 21.8805C23.7348 21.7908 23.8226 21.3487 23.8258 21.1021L23.8356 20.5639C23.8356 19.654 23.6568 18.7635 23.3058 17.9145C24.5148 17.0848 25.2331 15.7361 25.2331 14.2817C25.2331 11.8438 23.2246 9.8608 20.7546 9.8608C20.5466 9.8608 20.3353 9.87362 20.1306 9.90245L20.2378 9.78071C20.6538 9.31299 20.8846 8.71393 20.8846 8.09244V7.48057C20.8846 7.03527 20.5141 6.67007 20.0623 6.67007H19.9843V6.3401C19.9843 5.69619 19.4546 5.1708 18.7981 5.1708H15.4506C14.7973 5.1708 14.2643 5.69299 14.2643 6.3401V6.67007C13.8321 6.69249 13.4843 7.04488 13.4843 7.47736V8.08924C13.4843 8.71073 13.7151 9.30979 14.1311 9.7775L14.8363 10.5656C14.9468 10.6905 15.0736 10.8667 15.0671 11.0333L14.9598 11.9783C14.7193 13.0131 14.0986 14.1375 13.2926 14.8615C12.0933 15.9379 12.3241 15.9315 12.2103 18.4367L11.8983 24.4113ZM15.8763 11.0301C15.8763 10.6649 15.7431 10.3157 15.4993 10.0434L14.7713 9.2297C14.4918 8.91575 14.3358 8.5121 14.3358 8.09564V7.51259H20.0298V8.09564C20.0298 8.5121 19.8771 8.91575 19.5943 9.2297L18.8663 10.0434C18.6258 10.3125 18.4893 10.6553 18.4893 11.0109C18.4861 12.0456 18.7591 13.0643 19.2791 13.9742H15.0866C15.3758 13.4712 15.5871 12.933 15.7203 12.3692L15.8763 11.0301ZM22.8216 21.7812C22.5616 22.7647 21.9863 23.7674 21.1121 24.7573C20.8911 25.0104 20.5693 25.1577 20.2313 25.1577H14.1343C13.7963 25.1577 13.4746 25.0104 13.2536 24.7573C12.7921 24.2319 12.4086 23.7001 12.1161 23.1715C12.1193 23.0242 12.1161 22.88 12.1063 22.7391C12.0576 22.0151 12.4216 21.4384 12.0543 20.9803C12.0283 20.9483 12.3696 20.8105 12.3403 20.7785C12.3338 20.6888 11.8983 19.9424 11.8983 19.8559C11.8983 17.4981 12.7303 16.5018 13.8613 15.4894C14.0921 15.2844 14.3098 15.057 14.5081 14.8167H19.8608C20.0591 15.057 20.2768 15.2844 20.5043 15.4894C21.6158 16.4857 22.9386 18.1484 22.9841 20.4421C22.9841 20.5222 22.9808 20.6055 22.9873 20.7368L22.9418 21.2654C22.8638 21.6659 22.8411 21.7043 22.8216 21.7812ZM21.1186 12.3179C21.6906 12.4172 22.2008 12.7664 22.4901 13.263C23.0263 14.176 22.7598 15.246 22.0188 15.8354C21.7328 15.4958 21.4176 15.1723 21.0763 14.8647C20.4003 14.2561 19.8933 13.4904 19.6073 12.6351C20.0428 12.3403 20.5758 12.225 21.1186 12.3179ZM23.1368 12.6991C22.8606 12.2827 22.4673 11.9431 22.0123 11.7285C21.1478 11.3248 20.1858 11.3665 19.4026 11.7797C19.3636 11.5138 19.3441 11.2447 19.3473 10.9788C19.3473 10.9788 19.3473 10.9756 19.3506 10.9756C19.7958 10.7898 20.2703 10.6969 20.7578 10.6969C22.7598 10.6969 24.3881 12.3051 24.3881 14.2817C24.3881 15.4061 23.8486 16.4697 22.9386 17.1457C22.8183 16.9278 22.6851 16.7132 22.5388 16.505C23.6373 15.64 24.0176 14.0286 23.1368 12.6991ZM15.1158 6.67327V6.3433C15.1158 6.1607 15.2653 6.01334 15.4506 6.01334H18.7981C18.9833 6.01334 19.1328 6.1607 19.1328 6.3433V6.67327H15.1158Z" fill="#203686"/>
<path d="M12.6785 12.1703V4.87259C12.6785 3.9724 11.9342 3.23878 11.021 3.23878H9.37648C9.15873 3.23878 8.97998 3.06259 8.97998 2.84795V2.45392C9.20748 2.44751 9.39273 2.2649 9.39273 2.03745V0.416457C9.39273 0.185802 9.20423 0 8.97023 0H5.67798C5.44398 0 5.25548 0.185802 5.25548 0.416457V2.03745C5.25548 2.2649 5.43748 2.44751 5.66823 2.45392V2.84795C5.66823 3.05938 5.49273 3.23879 5.27498 3.24199C5.27498 3.24199 5.27173 3.24199 5.26848 3.24199H3.62723C2.71398 3.24199 1.96973 3.9756 1.96973 4.8758V12.1735C1.96973 12.6348 2.17448 13.0769 2.53198 13.3908C2.17448 13.7016 1.96973 14.1469 1.96973 14.605V23.1168C1.96973 24.6865 3.26648 25.9648 4.85898 25.9648H9.78923C11.3817 25.9648 12.6785 24.6865 12.6785 23.1168V14.605C12.6785 14.1437 12.4737 13.7016 12.1162 13.3908C12.4737 13.0737 12.6785 12.6316 12.6785 12.1703ZM11.8335 5.69591V11.3502H2.81473V5.69591H11.8335ZM6.10048 1.62099V0.832925H8.54448V1.62099H6.10048ZM6.51323 2.85116V2.45712H8.13498V2.85116C8.13498 3.5271 8.69398 4.07812 9.37973 4.07812C9.38298 4.07812 9.38298 4.07812 9.38623 4.07812H11.0242C11.4662 4.07812 11.8302 4.43051 11.8367 4.86619H2.81473C2.82123 4.43051 3.18198 4.07812 3.62723 4.07812H5.25548C5.25873 4.07812 5.26198 4.08132 5.26523 4.08132C5.95423 4.07811 6.51323 3.5271 6.51323 2.85116ZM11.021 12.9712C10.787 12.9712 10.5985 13.157 10.5985 13.3876C10.5985 13.6183 10.787 13.8041 11.021 13.8041C11.4695 13.8041 11.8335 14.1629 11.8335 14.6018V14.9958H11.4337C11.1997 14.9958 11.0112 15.1816 11.0112 15.4123C11.0112 15.6429 11.1997 15.8287 11.4337 15.8287H11.8335V16.6168H11.4337C11.1997 16.6168 11.0112 16.8026 11.0112 17.0333C11.0112 17.2639 11.1997 17.4497 11.4337 17.4497H11.8335V18.2378H11.4337C11.1997 18.2378 11.0112 18.4236 11.0112 18.6543C11.0112 18.8849 11.1997 19.0707 11.4337 19.0707H11.8335V23.1136C11.8335 24.2252 10.917 25.1286 9.78923 25.1286H4.85898C3.73123 25.1286 2.81473 24.2252 2.81473 23.1136V19.0707H3.21123C3.44523 19.0707 3.63373 18.8849 3.63373 18.6543C3.63373 18.4236 3.44523 18.2378 3.21123 18.2378H2.81473V17.4497H3.21123C3.44523 17.4497 3.63373 17.2639 3.63373 17.0333C3.63373 16.8026 3.44523 16.6168 3.21123 16.6168H2.81473V15.8287H3.21123C3.44523 15.8287 3.63373 15.6429 3.63373 15.4123C3.63373 15.1816 3.44523 14.9958 3.21123 14.9958H2.81473V14.6018C2.81473 14.1597 3.17873 13.8041 3.62723 13.8041C3.86123 13.8041 4.04973 13.6183 4.04973 13.3876C4.04973 13.157 3.86123 12.9712 3.62723 12.9712C3.18523 12.9712 2.82123 12.6188 2.81473 12.1831H11.8335C11.827 12.6188 11.4662 12.9712 11.021 12.9712Z" fill="#203686"/>
</svg>

<svg width="26" height="26" fill="none" xmlns="http://www.w3.org/2000/svg"><path d="M11.898 24.411c.215.301.452.6.709.894.383.439.94.695 1.527.695h6.097a1.98 1.98 0 001.482-.644c.982-1.102 1.69-2.322 2-3.476.022-.09.11-.531.113-.778l.01-.538a6.9 6.9 0 00-.53-2.65 4.398 4.398 0 001.927-3.632c0-2.438-2.008-4.421-4.478-4.421-.208 0-.42.013-.624.041l.107-.121a2.54 2.54 0 00.647-1.689v-.611a.82.82 0 00-.823-.81h-.078v-.33c0-.645-.53-1.17-1.186-1.17h-3.347c-.654 0-1.187.522-1.187 1.17v.33a.817.817 0 00-.78.806v.612c0 .622.231 1.22.647 1.688l.705.789c.11.124.238.3.231.467l-.107.945c-.24 1.035-.861 2.16-1.667 2.883-1.2 1.077-.969 1.07-1.083 3.576l-.312 5.974zm3.978-13.38c0-.366-.133-.715-.377-.988l-.728-.813a1.708 1.708 0 01-.435-1.134v-.583h5.694v.583c0 .416-.153.82-.436 1.134l-.728.813a1.46 1.46 0 00-.377.968 5.931 5.931 0 00.79 2.963h-4.192c.289-.503.5-1.041.633-1.605l.156-1.339zm6.946 10.75c-.26.984-.836 1.986-1.71 2.976-.22.253-.543.4-.88.4h-6.098c-.338 0-.66-.147-.88-.4a9.135 9.135 0 01-1.138-1.585c.003-.148 0-.292-.01-.433-.048-.724.316-1.3-.052-1.759-.026-.032.316-.17.286-.201-.006-.09-.442-.837-.442-.923 0-2.358.832-3.354 1.963-4.367a6.07 6.07 0 00.647-.672h5.353c.198.24.416.467.643.672 1.112.997 2.435 2.66 2.48 4.953 0 .08-.003.163.003.295l-.045.528c-.078.4-.1.44-.12.516zm-1.703-9.463c.572.1 1.082.448 1.371.945a1.98 1.98 0 01-.471 2.572 9.858 9.858 0 00-.943-.97 5.237 5.237 0 01-1.469-2.23c.436-.295.969-.41 1.512-.317zm2.018.381a2.779 2.779 0 00-1.125-.97 2.928 2.928 0 00-2.61.05 5.11 5.11 0 01-.055-.8s0-.003.004-.003c.445-.186.92-.28 1.407-.28 2.002 0 3.63 1.61 3.63 3.586 0 1.124-.54 2.188-1.45 2.864a6.996 6.996 0 00-.4-.641 2.819 2.819 0 00.599-3.806zm-8.021-6.026v-.33c0-.182.15-.33.335-.33h3.347c.185 0 .335.148.335.33v.33h-4.017z" fill="#203686"/><path d="M12.678 12.17V4.873c0-.9-.744-1.634-1.657-1.634H9.376a.395.395 0 01-.396-.391v-.394a.42.42 0 00.413-.417V.417A.419.419 0 008.97 0H5.678a.419.419 0 00-.423.416v1.621c0 .228.182.41.413.417v.394a.4.4 0 01-.393.394H3.628c-.914 0-1.658.734-1.658 1.634v7.298c0 .46.204.903.562 1.217-.358.31-.562.756-.562 1.214v8.512c0 1.57 1.296 2.848 2.889 2.848h4.93c1.593 0 2.89-1.279 2.89-2.848v-8.512c0-.461-.205-.903-.563-1.214.358-.317.563-.76.563-1.22zm-.845-6.474v5.654H2.816V5.696h9.019zM6.1 1.62V.833h2.444v.788H6.1zm.413 1.23v-.394h1.622v.394c0 .676.559 1.227 1.245 1.227h1.644a.81.81 0 01.813.788H2.815a.807.807 0 01.812-.788h1.628c.004 0 .007.003.01.003a1.244 1.244 0 001.248-1.23zm4.508 10.12a.419.419 0 00-.423.417c0 .23.189.416.423.416.448 0 .813.359.813.798v.394h-.4a.419.419 0 00-.423.416c0 .23.189.417.423.417h.4v.788h-.4a.419.419 0 00-.423.416c0 .23.189.417.423.417h.4v.788h-.4a.419.419 0 00-.423.416c0 .23.189.417.423.417h.4v4.043c0 1.111-.917 2.015-2.045 2.015H4.86c-1.128 0-2.044-.904-2.044-2.015V19.07h.396a.419.419 0 00.423-.417.419.419 0 00-.423-.416h-.396v-.788h.396a.419.419 0 00.423-.417.419.419 0 00-.423-.416h-.396v-.788h.396a.419.419 0 00.423-.417.419.419 0 00-.423-.416h-.396v-.394c0-.442.364-.798.812-.798a.419.419 0 00.423-.416.419.419 0 00-.423-.417.809.809 0 01-.812-.788h9.018a.807.807 0 01-.812.788z" fill="#203686"/></svg>
